raw/symbols/paxg.svg

<svg width="42" height="42" viewBox="0 0 42 42" fill="none" xmlns="http://www.w3.org/2000/svg">
<path d="M21 41C32.0457 41 41 32.0457 41 21C41 9.9543 32.0457 1 21 1C9.9543 1 1 9.9543 1 21C1 32.0457 9.9543 41 21 41Z" fill="#222222"/>
<path d="M13.9059 9.78175C14.5146 9.08858 15.0745 8.50205 15.6077 8.00439C6.60534 7.71556 9.22695 14.2252 6.27653 20.8325C2.89953 28.4485 6.67643 31.3501 12.3018 32.2565C11.5162 31.3204 10.8752 30.272 10.4 29.1462C6.76974 24.5561 8.24051 16.1892 13.9059 9.78175Z" fill="#EFE812"/>
<path d="M35.5678 17.8955C34.5047 20.6767 32.9666 23.2522 31.0222 25.5071C29.4633 27.4015 27.5961 29.0194 25.499 30.2926C23.0635 31.8359 20.2329 32.64 17.3498 32.6077C15.6665 32.6228 13.9847 32.5054 12.3198 32.2566C13.2442 33.3608 14.3901 34.2585 15.6835 34.8916C23.8238 38.8284 24.3348 31.519 32.9462 27.8088C37.7806 25.7248 37.7984 21.6546 35.5633 17.8955" fill="#EDE70A"/>
<path d="M25.4984 10.2974C26.6769 10.5037 27.8124 10.9062 28.8576 11.4883C31.5959 13.0279 33.9031 15.2312 35.5672 17.8957C37.0335 13.7633 36.3492 10.5196 33.1455 9.93306C29.6175 9.28877 26.8625 9.07993 24.2143 7.23147C20.9528 4.96533 18.0912 5.70293 15.6118 8.00906L16.1495 8.03128C19.5887 8.23568 22.8768 8.91996 25.4806 10.2885" fill="#EDE70A"/>
<path d="M13.9058 9.78215C8.24043 16.1896 6.76966 24.5565 10.4177 29.1465C9.5738 27.1541 9.20552 24.9924 9.34203 22.8329C9.47854 20.6734 10.1161 18.5753 11.2042 16.705C14.2746 11.5862 20.4376 9.36447 25.4987 10.2976C22.877 8.91124 19.5889 8.24473 16.1675 8.04033L15.6298 8.01367C15.0788 8.52022 14.519 9.08898 13.9058 9.78215Z" fill="#DEC21C"/>
<path d="M28.8582 11.4798C27.8124 10.9009 26.6769 10.5013 25.499 10.2979C28.9471 12.1108 31.2355 15.1856 31.2355 20.0467C31.2155 22.0987 30.6796 24.1127 29.6772 25.9033C28.6747 27.6939 27.2379 29.2035 25.499 30.2932C27.5971 29.0214 29.4646 27.4033 31.0222 25.5077C32.9666 23.2528 34.5047 20.6773 35.5678 17.8961C33.9049 15.2284 31.5976 13.0219 28.8582 11.4798Z" fill="#E5CB22"/>
<path d="M25.4985 10.2978C20.4375 9.36464 14.2745 11.5863 11.2041 16.6829C10.1114 18.5557 9.47131 20.6578 9.33476 22.8217C9.19822 24.9856 9.569 27.1515 10.4176 29.1467C10.8911 30.2735 11.5322 31.3221 12.3194 32.2571C13.9842 32.5059 15.666 32.6233 17.3493 32.6081C20.2324 32.6405 23.063 31.8364 25.4985 30.2931C27.2377 29.2037 28.6747 27.6942 29.6772 25.9035C30.6797 24.1129 31.2154 22.0987 31.235 20.0466C31.235 15.1855 28.9466 12.1107 25.4985 10.2978ZM24.9298 27.9825C23.0579 29.1848 20.7862 29.5971 18.6113 29.1291C16.4364 28.6612 14.5353 27.3511 13.3236 25.4853C10.8086 21.6062 12.0527 16.5985 15.8252 13.9325C20.0464 10.9332 25.4585 12.1151 27.4314 16.4297C29.3554 20.6331 28.8266 25.4898 24.9298 27.9825Z" fill="#CCA727"/>
</svg>

<svg xmlns="http://www.w3.org/2000/svg" width="42" height="42" fill="none"><path fill="#222" d="M21 41c11.046 0 20-8.954 20-20S32.046 1 21 1 1 9.954 1 21s8.954 20 20 20Z"/><path fill="#EFE812" d="M13.906 9.782a24.946 24.946 0 0 1 1.702-1.778c-9.003-.288-6.381 6.221-9.331 12.829-3.377 7.616.4 10.517 6.025 11.424a12.247 12.247 0 0 1-1.902-3.11c-3.63-4.59-2.16-12.958 3.506-19.365Z"/><path fill="#EDE70A" d="M35.568 17.895a25.716 25.716 0 0 1-4.546 7.612 21.814 21.814 0 0 1-5.523 4.786 14.913 14.913 0 0 1-8.15 2.315 32.085 32.085 0 0 1-5.03-.351 10.282 10.282 0 0 0 3.364 2.635c8.14 3.936 8.652-3.373 17.263-7.083 4.835-2.084 4.852-6.154 2.617-9.914"/><path fill="#EDE70A" d="M25.498 10.297c1.179.207 2.314.61 3.36 1.191a18.738 18.738 0 0 1 6.71 6.408c1.465-4.133.781-7.376-2.422-7.963-3.529-.644-6.284-.853-8.932-2.702-3.261-2.266-6.123-1.528-8.602.778l.537.022c3.44.205 6.728.889 9.332 2.258"/><path fill="#DEC21C" d="M13.906 9.782C8.24 16.19 6.77 24.556 10.418 29.146a13.934 13.934 0 0 1 .786-12.441c3.07-5.119 9.234-7.34 14.295-6.407-2.622-1.387-5.91-2.053-9.331-2.258l-.538-.026a23.664 23.664 0 0 0-1.724 1.768Z"/><path fill="#E5CB22" d="M28.858 11.48a10.694 10.694 0 0 0-3.359-1.182c3.448 1.813 5.736 4.888 5.736 9.749A12.234 12.234 0 0 1 25.5 30.293a21.723 21.723 0 0 0 5.523-4.785 25.716 25.716 0 0 0 4.546-7.612 18.738 18.738 0 0 0-6.71-6.416Z"/><path fill="#CCA727" d="M25.498 10.298c-5.06-.933-11.224 1.288-14.294 6.385a13.921 13.921 0 0 0-.786 12.464 12.118 12.118 0 0 0 1.901 3.11c1.665.249 3.347.366 5.03.351a14.912 14.912 0 0 0 8.15-2.315 12.228 12.228 0 0 0 5.736-10.246c0-4.862-2.288-7.936-5.736-9.75Zm-.568 17.684a8.416 8.416 0 0 1-11.606-2.497c-2.515-3.879-1.271-8.886 2.501-11.553 4.221-2.999 9.634-1.817 11.606 2.498 1.924 4.203 1.396 9.06-2.501 11.553Z"/></svg>
